images/usecases/scada/water-2.svg

<svg width="285" height="210" viewBox="0 0 285 210" fill="none" xmlns="http://www.w3.org/2000/svg">
<rect x="13.75" y="32.5234" width="164.5" height="164.5" rx="82.25" stroke="#91A3BE" stroke-width="1.5"/>
<path fill-rule="evenodd" clip-rule="evenodd" d="M105.773 125.353C105.773 124.165 106.737 123.201 107.925 123.201H119.493C120.681 123.201 121.645 124.165 121.645 125.353C121.645 126.542 120.681 127.505 119.493 127.505H107.925C106.737 127.505 105.773 126.542 105.773 125.353Z" fill="#305680"/>
<path d="M138.414 126.07C138.414 124.233 138.052 122.414 137.349 120.717C136.646 119.02 135.616 117.478 134.317 116.179C133.018 114.88 131.476 113.85 129.779 113.147C128.082 112.444 126.263 112.082 124.426 112.082V116.406C125.695 116.406 126.952 116.656 128.124 117.142C129.297 117.627 130.362 118.339 131.26 119.237C132.157 120.134 132.869 121.199 133.355 122.372C133.84 123.544 134.09 124.801 134.09 126.07H138.414Z" fill="#305680"/>
<path fill-rule="evenodd" clip-rule="evenodd" d="M126.936 114.234C126.936 113.046 125.972 112.082 124.784 112.082H108.554C107.365 112.082 106.402 113.046 106.402 114.234C106.402 115.423 107.365 116.386 108.554 116.386H124.784C125.972 116.386 126.936 115.423 126.936 114.234ZM136.261 123.022C135.073 123.022 134.109 123.985 134.109 125.174V156.916C134.109 158.105 135.073 159.068 136.261 159.068H139.848C141.036 159.068 142 158.105 142 156.916C142 155.728 141.036 154.764 139.848 154.764H138.413V125.174C138.413 123.985 137.45 123.022 136.261 123.022ZM124.784 128.491C123.595 128.491 122.632 129.455 122.632 130.643V156.916C122.632 158.105 123.595 159.068 124.784 159.068C125.972 159.068 126.936 158.105 126.936 156.916V130.643C126.936 129.455 125.972 128.491 124.784 128.491Z" fill="#305680"/>
<path fill-rule="evenodd" clip-rule="evenodd" d="M122.666 131.002C122.666 130.544 122.577 130.091 122.404 129.669C122.4 129.658 122.395 129.647 122.391 129.636C122.218 129.227 121.969 128.854 121.658 128.539C121.646 128.527 121.634 128.515 121.623 128.503C121.426 128.311 121.209 128.143 120.974 128.002C120.835 127.919 120.69 127.846 120.541 127.783C120.123 127.608 119.675 127.518 119.223 127.518V123.201C120.235 123.201 121.238 123.403 122.174 123.795C122.531 123.944 122.876 124.121 123.205 124.322C123.314 124.388 123.421 124.457 123.527 124.529C123.938 124.809 124.323 125.129 124.676 125.486C124.687 125.497 124.699 125.509 124.71 125.521C125.063 125.882 125.379 126.276 125.654 126.698C125.926 127.113 126.158 127.554 126.347 128.017C126.352 128.027 126.356 128.038 126.36 128.049C126.739 128.986 126.934 129.989 126.934 131.002H122.666Z" fill="#305680"/>
<path fill-rule="evenodd" clip-rule="evenodd" d="M115.996 108.137C117.184 108.137 118.148 109.1 118.148 110.289V129.837C118.148 131.025 117.184 131.989 115.996 131.989C114.807 131.989 113.844 131.025 113.844 129.837V110.289C113.844 109.1 114.807 108.137 115.996 108.137Z" fill="#305680"/>
<path fill-rule="evenodd" clip-rule="evenodd" d="M70.4453 125.353C70.4453 124.165 71.4088 123.201 72.5974 123.201H83.8055C84.9941 123.201 85.9576 124.165 85.9576 125.353C85.9576 126.542 84.9941 127.505 83.8055 127.505H72.5974C71.4088 127.505 70.4453 126.542 70.4453 125.353Z" fill="#305680"/>
<path fill-rule="evenodd" clip-rule="evenodd" d="M65.0643 114.234C65.0643 113.046 66.0278 112.082 67.2164 112.082H83.4464C84.6349 112.082 85.5984 113.046 85.5984 114.234C85.5984 115.423 84.6349 116.386 83.4464 116.386H67.2164C66.0278 116.386 65.0643 115.423 65.0643 114.234ZM55.7388 123.022C56.9273 123.022 57.8908 123.985 57.8908 125.174V154.764H65.0643V130.643C65.0643 129.455 66.0278 128.491 67.2164 128.491C68.4049 128.491 69.3684 129.455 69.3684 130.643V154.764H139.848C141.036 154.764 142 155.728 142 156.916C142 158.105 141.036 159.068 139.848 159.068H52.152C50.9635 159.068 50 158.105 50 156.916C50 155.728 50.9635 154.764 52.152 154.764H53.5867V125.174C53.5867 123.985 54.5502 123.022 55.7388 123.022Z" fill="#305680"/>
<path d="M53.5859 126.07C53.5859 124.233 53.9477 122.414 54.6507 120.717C55.3537 119.02 56.3841 117.478 57.683 116.179C58.9819 114.88 60.524 113.85 62.2211 113.147C63.9183 112.444 65.7372 112.082 67.5742 112.082V116.406C66.3051 116.406 65.0483 116.656 63.8758 117.142C62.7032 117.627 61.6378 118.339 60.7404 119.237C59.843 120.134 59.1311 121.199 58.6454 122.372C58.1597 123.544 57.9098 124.801 57.9098 126.07H53.5859Z" fill="#305680"/>
<path fill-rule="evenodd" clip-rule="evenodd" d="M69.3336 131.002C69.3336 130.544 69.4227 130.091 69.5957 129.669C69.6001 129.658 69.6046 129.647 69.6091 129.636C69.7818 129.227 70.0306 128.854 70.3422 128.539C70.3539 128.527 70.3656 128.515 70.3774 128.503C70.5735 128.311 70.7913 128.143 71.0259 128.002C71.1649 127.919 71.3097 127.846 71.4595 127.783C71.8773 127.608 72.3251 127.518 72.7773 127.518V123.201C71.7647 123.201 70.7619 123.403 69.8263 123.795C69.469 123.944 69.1242 124.121 68.7946 124.322C68.6858 124.388 68.5786 124.457 68.4732 124.529C68.0617 124.809 67.6769 125.129 67.3245 125.486C67.3129 125.497 67.3013 125.509 67.2897 125.521C66.9373 125.882 66.6213 126.276 66.3457 126.698C66.0743 127.113 65.842 127.554 65.6528 128.017C65.6484 128.027 65.644 128.038 65.6397 128.049C65.2608 128.986 65.0658 129.989 65.0658 131.002H69.3336Z" fill="#305680"/>
<path fill-rule="evenodd" clip-rule="evenodd" d="M76.9023 72.6286C76.9023 71.4401 77.8658 70.4766 79.0544 70.4766L113.487 70.4766C114.676 70.4766 115.639 71.4401 115.639 72.6286C115.639 73.8172 114.676 74.7807 113.487 74.7807L79.0544 74.7807C77.8658 74.7807 76.9023 73.8172 76.9023 72.6286Z" fill="#305680"/>
<path fill-rule="evenodd" clip-rule="evenodd" d="M92.6828 71.5527C93.8714 71.5527 94.8349 72.5162 94.8349 73.7048V95.4943H107.388C108.577 95.4943 109.541 96.4578 109.541 97.6463V128.403C109.541 129.591 108.577 130.555 107.388 130.555H84.4333C83.2448 130.555 82.2812 129.591 82.2812 128.403V97.6463C82.2812 96.4578 83.2448 95.4943 84.4333 95.4943H90.5308V73.7048C90.5308 72.5162 91.4943 71.5527 92.6828 71.5527ZM99.8563 71.5527C101.045 71.5527 102.008 72.5162 102.008 73.7048V84.2857C102.008 85.4742 101.045 86.4377 99.8563 86.4377C98.6678 86.4377 97.7043 85.4742 97.7043 84.2857V73.7048C97.7043 72.5162 98.6678 71.5527 99.8563 71.5527ZM86.5853 99.7983V126.251H105.236V99.7983H86.5853Z" fill="#305680"/>
<path d="M101.828 90.9216C101.828 92.1101 100.864 93.0736 99.6755 93.0736C98.4869 93.0736 97.5234 92.1101 97.5234 90.9216C97.5234 89.733 98.4869 88.7695 99.6755 88.7695C100.864 88.7695 101.828 89.733 101.828 90.9216Z" fill="#305680"/>
<path fill-rule="evenodd" clip-rule="evenodd" d="M76.7224 108.406C77.9109 108.406 78.8744 109.37 78.8744 110.558V130.106C78.8744 131.295 77.9109 132.258 76.7224 132.258C75.5338 132.258 74.5703 131.295 74.5703 130.106V110.558C74.5703 109.37 75.5338 108.406 76.7224 108.406Z" fill="#305680"/>
<path fill-rule="evenodd" clip-rule="evenodd" d="M103.068 115.621C103.31 116.636 103.327 117.691 103.119 118.714C103.019 119.205 102.868 119.683 102.67 120.14C102.455 120.634 102.185 121.104 101.863 121.541C101.244 122.38 100.449 123.075 99.5338 123.576C98.6185 124.077 97.6049 124.372 96.5638 124.441C95.5227 124.51 94.4791 124.351 93.5057 123.975C92.5324 123.599 91.6528 123.015 90.9282 122.264C90.5518 121.874 90.222 121.444 89.9441 120.983C89.687 120.555 89.4744 120.102 89.3106 119.628C88.9696 118.642 88.8477 117.593 88.9535 116.556C88.9535 116.555 88.9535 116.555 88.9535 116.555L93.2411 116.992C93.2411 116.993 93.2411 116.993 93.2411 116.993C93.1989 117.407 93.2475 117.826 93.3836 118.219C93.5198 118.613 93.7402 118.972 94.0294 119.272C94.3187 119.571 94.6698 119.804 95.0584 119.954C95.4469 120.104 95.8635 120.168 96.2791 120.14C96.6948 120.113 97.0994 119.995 97.4647 119.795C97.8301 119.595 98.1475 119.318 98.3947 118.983C98.6419 118.647 98.813 118.262 98.8961 117.854C98.9791 117.446 98.9722 117.025 98.876 116.621C98.8759 116.62 98.8758 116.62 98.8757 116.619L103.068 115.621Z" fill="#305680"/>
<path fill-rule="evenodd" clip-rule="evenodd" d="M96.3436 101.145C97.5307 101.087 98.5402 102.002 98.5984 103.189C98.8107 107.521 99.5339 109.022 100.163 109.996C100.303 110.213 100.473 110.445 100.663 110.703C101.386 111.687 102.386 113.047 103.011 115.381C103.319 116.529 102.637 117.709 101.489 118.017C100.341 118.324 99.1612 117.643 98.8536 116.495C98.4536 115.001 98.0138 114.398 97.3822 113.532C97.1357 113.194 96.86 112.816 96.5461 112.33C95.3816 110.525 94.5355 108.215 94.2995 103.4C94.2413 102.213 95.1565 101.203 96.3436 101.145Z" fill="#305680"/>
<path fill-rule="evenodd" clip-rule="evenodd" d="M96.5548 101.145C95.3677 101.087 94.3582 102.002 94.3 103.189C94.1957 105.318 93.8877 106.734 93.5222 107.743C93.1641 108.733 92.72 109.42 92.2149 110.084C92.0656 110.28 91.9037 110.481 91.7344 110.691C90.7122 111.959 89.4159 113.566 88.9431 116.592C88.7596 117.766 89.5628 118.867 90.7371 119.051C91.9114 119.234 93.0121 118.431 93.1956 117.257C93.483 115.417 94.0819 114.664 95.025 113.477C95.2159 113.237 95.4209 112.979 95.6402 112.69C96.312 111.807 97.0168 110.735 97.5694 109.208C98.1146 107.702 98.4791 105.845 98.5989 103.4C98.6571 102.213 97.742 101.203 96.5548 101.145Z" fill="#305680"/>
<path d="M97.3086 0.773438V16.7734" stroke="#91A3BE" stroke-width="1.5"/>
<line x1="263.629" y1="112.234" x2="192.856" y2="112.234" stroke="#91A3BE" stroke-width="1.5"/>
<mask id="path-21-inside-1_10336_18452" fill="white">
<path d="M96.6276 15.7671C109.37 15.7351 121.993 18.2219 133.774 23.0849C145.556 27.948 156.263 35.0918 165.285 44.1072C174.306 53.1226 181.463 63.8324 186.346 75.6232C191.229 87.4139 193.742 100.054 193.741 112.819L192.394 112.819C192.394 100.231 189.916 87.7672 185.101 76.1404C180.286 64.5137 173.229 53.9529 164.333 45.0629C155.437 36.1729 144.878 29.1284 133.261 24.333C121.644 19.5376 109.196 17.0854 96.631 17.117L96.6276 15.7671Z"/>
</mask>
<path d="M96.6276 15.7671C109.37 15.7351 121.993 18.2219 133.774 23.0849C145.556 27.948 156.263 35.0918 165.285 44.1072C174.306 53.1226 181.463 63.8324 186.346 75.6232C191.229 87.4139 193.742 100.054 193.741 112.819L192.394 112.819C192.394 100.231 189.916 87.7672 185.101 76.1404C180.286 64.5137 173.229 53.9529 164.333 45.0629C155.437 36.1729 144.878 29.1284 133.261 24.333C121.644 19.5376 109.196 17.0854 96.631 17.117L96.6276 15.7671Z" fill="#B2BFD1" stroke="#91A3BE" stroke-width="2" mask="url(#path-21-inside-1_10336_18452)"/>
<path d="M274.243 122.255C268.796 122.255 264.377 117.83 264.377 112.37C264.377 106.909 268.796 102.484 274.243 102.484C279.691 102.484 284.109 106.909 284.109 112.37C284.109 117.83 279.691 122.255 274.243 122.255Z" fill="#F4F8FE" stroke="#91A3BE" stroke-width="1.5"/>
</svg>

<svg width="285" height="210" fill="none" xmlns="http://www.w3.org/2000/svg"><rect x="13.75" y="32.523" width="164.5" height="164.5" rx="82.25" stroke="#91A3BE" stroke-width="1.5"/><path fill-rule="evenodd" clip-rule="evenodd" d="M105.773 125.353c0-1.188.964-2.152 2.152-2.152h11.568a2.153 2.153 0 0 1 0 4.304h-11.568a2.152 2.152 0 0 1-2.152-2.152Z" fill="#305680"/><path d="M138.414 126.07a13.987 13.987 0 0 0-13.988-13.988v4.324a9.655 9.655 0 0 1 6.834 2.831 9.665 9.665 0 0 1 2.83 6.833h4.324Z" fill="#305680"/><path fill-rule="evenodd" clip-rule="evenodd" d="M126.936 114.234a2.153 2.153 0 0 0-2.152-2.152h-16.23a2.152 2.152 0 0 0 0 4.304h16.23a2.152 2.152 0 0 0 2.152-2.152Zm9.325 8.788a2.152 2.152 0 0 0-2.152 2.152v31.742c0 1.189.964 2.152 2.152 2.152h3.587a2.152 2.152 0 0 0 0-4.304h-1.435v-29.59a2.151 2.151 0 0 0-2.152-2.152Zm-11.477 5.469a2.152 2.152 0 0 0-2.152 2.152v26.273a2.151 2.151 0 1 0 4.304 0v-26.273a2.153 2.153 0 0 0-2.152-2.152Z" fill="#305680"/><path fill-rule="evenodd" clip-rule="evenodd" d="M122.666 131.002c0-.458-.089-.911-.262-1.333l-.013-.033a3.506 3.506 0 0 0-.733-1.097l-.035-.036a3.535 3.535 0 0 0-1.082-.72 3.413 3.413 0 0 0-1.318-.265v-4.317a7.64 7.64 0 0 1 4.304 1.328c.411.28.796.6 1.149.957l.034.035c.353.361.669.755.944 1.177.272.415.504.856.693 1.319l.013.032c.379.937.574 1.94.574 2.953h-4.268ZM115.996 108.137c1.188 0 2.152.963 2.152 2.152v19.548a2.153 2.153 0 0 1-4.304 0v-19.548c0-1.189.963-2.152 2.152-2.152ZM70.445 125.353c0-1.188.964-2.152 2.152-2.152h11.209a2.152 2.152 0 0 1 0 4.304H72.596a2.152 2.152 0 0 1-2.152-2.152ZM65.064 114.234c0-1.188.964-2.152 2.152-2.152h16.23a2.152 2.152 0 0 1 0 4.304h-16.23a2.152 2.152 0 0 1-2.152-2.152Zm-9.325 8.788c1.188 0 2.152.963 2.152 2.152v29.59h7.173v-24.121a2.152 2.152 0 0 1 4.304 0v24.121h70.48a2.153 2.153 0 0 1 0 4.304H52.152a2.152 2.152 0 1 1 0-4.304h1.435v-29.59c0-1.189.963-2.152 2.152-2.152Z" fill="#305680"/><path d="M53.586 126.07a13.987 13.987 0 0 1 13.988-13.988v4.324a9.659 9.659 0 0 0-6.834 2.831 9.654 9.654 0 0 0-2.83 6.833h-4.324Z" fill="#305680"/><path fill-rule="evenodd" clip-rule="evenodd" d="M69.334 131.002c0-.458.089-.911.262-1.333l.013-.033a3.491 3.491 0 0 1 1.417-1.634 3.41 3.41 0 0 1 1.751-.484v-4.317a7.636 7.636 0 0 0-4.304 1.328 7.7 7.7 0 0 0-1.148.957l-.035.035a7.755 7.755 0 0 0-1.65 2.528 7.878 7.878 0 0 0-.574 2.953h4.268ZM76.902 72.629c0-1.189.964-2.152 2.152-2.152h34.433a2.152 2.152 0 1 1 0 4.304H79.054a2.152 2.152 0 0 1-2.152-2.152Z" fill="#305680"/><path fill-rule="evenodd" clip-rule="evenodd" d="M92.683 71.553c1.188 0 2.152.963 2.152 2.152v21.79h12.553c1.189 0 2.153.963 2.153 2.151v30.757a2.153 2.153 0 0 1-2.153 2.152H84.433a2.152 2.152 0 0 1-2.152-2.152V97.646c0-1.188.964-2.152 2.152-2.152h6.098v-21.79c0-1.188.963-2.151 2.152-2.151Zm7.173 0c1.189 0 2.152.963 2.152 2.152v10.58a2.152 2.152 0 1 1-4.304 0v-10.58c0-1.189.964-2.152 2.152-2.152Zm-13.27 28.245v26.453h18.65V99.798h-18.65Z" fill="#305680"/><path d="M101.828 90.922a2.152 2.152 0 1 1-4.305-.001 2.152 2.152 0 0 1 4.305 0Z" fill="#305680"/><path fill-rule="evenodd" clip-rule="evenodd" d="M76.722 108.406c1.189 0 2.152.964 2.152 2.152v19.548a2.152 2.152 0 1 1-4.304 0v-19.548c0-1.188.964-2.152 2.152-2.152ZM103.068 115.621a7.172 7.172 0 0 1-6.504 8.82 7.17 7.17 0 0 1-7.253-4.813 7.174 7.174 0 0 1-.358-3.072v-.001l4.288.437v.001a2.862 2.862 0 0 0 4.224 2.802 2.865 2.865 0 0 0 1.411-3.174v-.002l4.192-.998Z" fill="#305680"/><path fill-rule="evenodd" clip-rule="evenodd" d="M96.344 101.145a2.152 2.152 0 0 1 2.254 2.044c.213 4.332.936 5.833 1.565 6.807.14.217.31.449.5.707.723.984 1.723 2.344 2.348 4.678a2.152 2.152 0 0 1-4.157 1.114c-.4-1.494-.84-2.097-1.472-2.963-.246-.338-.522-.716-.836-1.202-1.164-1.805-2.01-4.115-2.247-8.93a2.152 2.152 0 0 1 2.045-2.255Z" fill="#305680"/><path fill-rule="evenodd" clip-rule="evenodd" d="M96.555 101.145a2.152 2.152 0 0 0-2.255 2.044c-.104 2.129-.412 3.545-.778 4.554-.358.99-.802 1.677-1.307 2.341-.15.196-.311.397-.48.607-1.023 1.268-2.32 2.875-2.792 5.901a2.153 2.153 0 0 0 4.253.665c.287-1.84.886-2.593 1.829-3.78.19-.24.396-.498.615-.787.672-.883 1.377-1.955 1.93-3.482.545-1.506.91-3.363 1.029-5.808a2.152 2.152 0 0 0-2.044-2.255Z" fill="#305680"/><path d="M97.309.773v16M263.629 112.234h-70.773" stroke="#91A3BE" stroke-width="1.5"/><mask id="a" fill="#fff"><path d="M96.628 15.767a96.716 96.716 0 0 1 37.146 7.318 96.864 96.864 0 0 1 31.511 21.022 97.058 97.058 0 0 1 21.061 31.516 97.195 97.195 0 0 1 7.395 37.196h-1.347a95.863 95.863 0 0 0-7.293-36.679 95.7 95.7 0 0 0-20.768-31.077 95.52 95.52 0 0 0-31.072-20.73 95.37 95.37 0 0 0-36.63-7.216l-.003-1.35Z"/></mask><path d="M96.628 15.767a96.716 96.716 0 0 1 37.146 7.318 96.864 96.864 0 0 1 31.511 21.022 97.058 97.058 0 0 1 21.061 31.516 97.195 97.195 0 0 1 7.395 37.196h-1.347a95.863 95.863 0 0 0-7.293-36.679 95.7 95.7 0 0 0-20.768-31.077 95.52 95.52 0 0 0-31.072-20.73 95.37 95.37 0 0 0-36.63-7.216l-.003-1.35Z" fill="#B2BFD1" stroke="#91A3BE" stroke-width="2" mask="url(#a)"/><path d="M274.243 122.255c-5.447 0-9.866-4.425-9.866-9.885 0-5.461 4.419-9.886 9.866-9.886 5.448 0 9.866 4.425 9.866 9.886 0 5.46-4.418 9.885-9.866 9.885Z" fill="#F4F8FE" stroke="#91A3BE" stroke-width="1.5"/></svg>
